static/logos/gatsby.svg

<svg width="106" height="28" viewBox="0 0 106 28" fill="none" xmlns="http://www.w3.org/2000/svg">
<path d="M62.9 12.0002H65.7V22.0002H62.9V20.7002C61.9 22.2002 60.6 22.3002 59.8 22.3002C56.7 22.3002 54.7 19.9002 54.7 17.0002C54.7 14.0002 56.7 11.7002 59.6 11.7002C60.4 11.7002 61.9 11.8002 62.8 13.3002V12.0002H62.9ZM57.7 17.0002C57.7 18.6002 58.8 19.8002 60.5 19.8002C62.1 19.8002 63.3 18.6002 63.3 17.0002C63.3 15.4002 62.2 14.2002 60.5 14.2002C58.9 14.2002 57.7 15.4002 57.7 17.0002ZM71.2 14.4002V22.0002H68.4V14.4002H67.3V12.0002H68.4V8.6002H71.2V12.0002H73.1V14.4002H71.2ZM79.7 14.4002C79 13.8002 78.4 13.7002 78.1 13.7002C77.4 13.7002 77 14.0002 77 14.5002C77 14.8002 77.1 15.1002 77.9 15.4002L78.6 15.6002C79.4 15.9002 80.6 16.2002 81.1 17.0002C81.4 17.4002 81.6 18.0002 81.6 18.7002C81.6 19.6002 81.3 20.5002 80.5 21.2002C79.7 21.9002 78.7 22.3002 77.5 22.3002C75.4 22.3002 74.3 21.3002 73.6 20.6002L75.1 18.9002C75.7 19.5002 76.5 20.1002 77.3 20.1002C78.1 20.1002 78.7 19.7002 78.7 19.0002C78.7 18.4002 78.2 18.1002 77.8 18.0002L77.2 17.8002C76.5 17.5002 75.7 17.2002 75.1 16.6002C74.6 16.1002 74.3 15.5002 74.3 14.7002C74.3 13.7002 74.8 12.9002 75.3 12.4002C76.1 11.8002 77.1 11.7002 77.9 11.7002C78.6 11.7002 79.8 11.8002 81.1 12.8002L79.7 14.4002V14.4002ZM85.8 13.3002C86.8 11.9002 88.2 11.7002 89 11.7002C91.9 11.7002 93.9 14.0002 93.9 17.0002C93.9 20.0002 91.9 22.3002 88.9 22.3002C88.3 22.3002 86.8 22.2002 85.7 20.7002V22.0002H83V5.2002H85.8V13.3002V13.3002ZM85.5 17.0002C85.5 18.6002 86.6 19.8002 88.3 19.8002C89.9 19.8002 91.1 18.6002 91.1 17.0002C91.1 15.4002 90 14.2002 88.3 14.2002C86.6 14.2002 85.5 15.4002 85.5 17.0002ZM98.5 20.5002L93.7 12.0002H97L100.1 17.7002L102.9 12.0002H106.1L98.1 27.3002H94.9L98.5 20.5002ZM54 13.7002H47V16.5002H50.7C50.1 18.4002 48.7 19.7002 46.1 19.7002C43.2 19.7002 41.1 17.3002 41.1 14.4002C41.1 11.5002 43.1 9.0002 46 9.0002C47.6 9.0002 49.2 9.8002 50.2 11.1002L52.5 9.6002C51 7.5002 48.6 6.3002 46 6.3002C41.6 6.3002 38 9.9002 38 14.4002C38 18.9002 41.4 22.5002 46 22.5002C50.6 22.5002 54 18.9002 54 14.4002C54.1 14.1002 54 13.9002 54 13.7002V13.7002Z" fill="#37322e"/>
<path d="M14 0C6.3 0 0 6.3 0 14C0 21.7 6.3 28 14 28C21.7 28 28 21.7 28 14C28 6.3 21.7 0 14 0ZM6.2 21.8C4.1 19.7 3 16.9 3 14.2L13.9 25C11.1 24.9 8.3 23.9 6.2 21.8ZM16.4 24.7L3.3 11.6C4.4 6.7 8.8 3 14 3C17.7 3 20.9 4.8 22.9 7.5L21.4 8.8C19.7 6.5 17 5 14 5C10.1 5 6.8 7.5 5.5 11L17 22.5C19.9 21.5 22.1 19 22.8 16H18V14H25C25 19.2 21.3 23.6 16.4 24.7Z" fill="#37322e"/>
</svg>

<svg fill="none" xmlns="http://www.w3.org/2000/svg" viewBox="0 0 106 28"><path d="M62.9 12h2.8v10h-2.8v-1.3a3.4 3.4 0 01-3.1 1.6c-3.1 0-5.1-2.4-5.1-5.3 0-3 2-5.3 4.9-5.3.8 0 2.3.1 3.2 1.6V12h.1zm-5.2 5c0 1.6 1.1 2.8 2.8 2.8 1.6 0 2.8-1.2 2.8-2.8 0-1.6-1.1-2.8-2.8-2.8a2.7 2.7 0 00-2.8 2.8zm13.5-2.6V22h-2.8v-7.6h-1.1V12h1.1V8.6h2.8V12h1.9v2.4h-1.9zm8.5 0c-.7-.6-1.3-.7-1.6-.7-.7 0-1.1.3-1.1.8 0 .3.1.6.9.9l.7.2c.8.3 2 .6 2.5 1.4.3.4.5 1 .5 1.7 0 .9-.3 1.8-1.1 2.5s-1.8 1.1-3 1.1c-2.1 0-3.2-1-3.9-1.7l1.5-1.7c.6.6 1.4 1.2 2.2 1.2.8 0 1.4-.4 1.4-1.1 0-.6-.5-.9-.9-1l-.6-.2c-.7-.3-1.5-.6-2.1-1.2-.5-.5-.8-1.1-.8-1.9 0-1 .5-1.8 1-2.3.8-.6 1.8-.7 2.6-.7a5 5 0 013.2 1.1l-1.4 1.6zm6.1-1.1c1-1.4 2.4-1.6 3.2-1.6 2.9 0 4.9 2.3 4.9 5.3s-2 5.3-5 5.3c-.6 0-2.1-.1-3.2-1.6V22H83V5.2h2.8v8.1zm-.3 3.7c0 1.6 1.1 2.8 2.8 2.8 1.6 0 2.8-1.2 2.8-2.8 0-1.6-1.1-2.8-2.8-2.8a2.7 2.7 0 00-2.8 2.8zm13 3.5L93.7 12H97l3.1 5.7 2.8-5.7h3.2l-8 15.3h-3.2l3.6-6.8zM54 13.7h-7v2.8h3.7c-.6 1.9-2 3.2-4.6 3.2-2.9 0-5-2.4-5-5.3S43.1 9 46 9c1.6 0 3.2.8 4.2 2.1l2.3-1.5A8 8 0 0038 14.4a8 8 0 008 8.1 8 8 0 008-8.1v-.7zM14 0A14 14 0 000 14a14 14 0 0014 14 14 14 0 0014-14A14 14 0 0014 0zM6.2 21.8A10.9 10.9 0 013 14.2L13.9 25c-2.8-.1-5.6-1.1-7.7-3.2zm10.2 2.9L3.3 11.6a11 11 0 0119.6-4.1l-1.5 1.3A9.2 9.2 0 0014 5a9.1 9.1 0 00-8.5 6L17 22.5a9 9 0 005.8-6.5H18v-2h7a11 11 0 01-8.6 10.7z" fill="#37322e"/></svg>
